images/logo.svg

<svg width="359" height="146" viewBox="0 0 359 146" fill="none" xmlns="http://www.w3.org/2000/svg">
<path d="M138.334 98.4375C136.614 98.24 134.873 98.5409 133.318 99.3046C133.318 99.3046 126.318 105.187 91.6923 98.4141C66.2365 93.4224 53.0069 93.938 53.0069 93.938C53.0069 93.938 57.2768 64.6439 56.1102 56.4416C56.0566 55.8365 55.7712 55.276 55.3142 54.8781C54.8572 54.4803 54.2642 54.2763 53.6603 54.309C51.117 54.309 49.5771 55.2933 49.5771 56.6525C49.7952 62.1901 49.6002 67.7363 48.9937 73.2447C47.9368 76.1548 45.9526 78.633 43.3493 80.2942C40.7461 81.9554 37.6695 82.7066 34.5976 82.4313C23.5146 81.6579 21.1814 73.6431 20.2014 68.1827C19.2214 62.7223 18.6614 47.4659 21.578 41.2322C21.578 41.2322 38.2841 41.818 48.7837 32.8189C59.2834 23.8198 58.6301 16.0393 53.6603 12.7115C48.6904 9.38372 37.0475 9.9696 28.1111 18.1719C22.9802 22.6735 18.9284 28.2814 16.2582 34.5766C16.2582 34.5766 3.12197 31.7643 6.13186 17.9844C9.32842 3.59523 28.9044 5.28256 28.9044 5.28256C32.9876 6.07936 33.1743 6.45432 34.5276 5.09508C35.8809 3.73584 36.8608 0.220556 30.4444 0.0096391C24.0279 -0.201278 4.77858 2.98591 1.09204 15.8284C-2.85116 29.4911 4.42859 39.2636 14.2049 40.7869C14.2049 40.7869 8.86177 64.4565 15.4649 76.1741C17.2953 79.877 20.18 82.95 23.7528 85.003C27.3255 87.0559 31.4251 87.9961 35.5309 87.7042C39.3807 87.7042 46.1938 85.5481 48.1304 82.4313C48.1304 82.4313 47.2205 90.8211 46.4505 93.8676C46.4505 93.8676 30.2577 93.6567 25.1945 96.2112C16.5848 100.781 18.3814 111.491 21.6947 115.287C24.4946 118.521 32.9176 120.279 39.0074 117.397C42.4929 115.712 45.5035 113.178 47.7652 110.027C50.0269 106.875 51.4679 103.205 51.957 99.3515C61.809 98.8423 71.6788 99.9182 81.1926 102.539C95.5888 106.851 115.631 110.882 121.651 110.882C127.671 110.882 140.317 109.147 141.087 104.109C141.507 100.781 140.271 99.0468 138.334 98.4375ZM37.0008 20.117C37.0008 20.117 44.6539 14.2582 48.3171 17.9141C49.1396 18.8051 49.6138 19.9647 49.6524 21.1791C49.6909 22.3935 49.2913 23.581 48.5271 24.5229C46.9871 26.5383 42.9273 32.9127 23.6546 36.0764C23.6546 36.0764 29.7211 25.39 37.0008 20.117ZM37.6308 111.303C37.6308 111.303 27.0612 117.092 25.9645 109.241C25.5408 107.604 25.6897 105.871 26.3862 104.33C27.0828 102.79 28.2848 101.537 29.7911 100.781C31.6343 99.8671 34.1542 98.7187 45.1439 99.1171C45.0207 101.621 44.2668 104.053 42.9528 106.184C41.6388 108.315 39.8076 110.077 37.6308 111.303Z" fill="#2D3440"/>
<path d="M171.676 55.6214C171.676 60.9177 171.676 66.1907 171.676 71.487C171.676 71.487 171.676 71.6745 171.676 71.7682C171.492 73.8779 170.803 75.9118 169.67 77.6973C168.953 78.9942 168.022 80.1591 166.916 81.1423C165.68 82.2203 164.863 79.8065 164.396 78.7988C161.153 71.9792 162.717 62.8394 163.977 55.6917C164.56 52.2701 157.653 53.1607 157.117 56.2073C155.858 62.2999 155.426 68.5356 155.833 74.7445C155.222 74.7929 154.627 74.9702 154.089 75.265C153.55 75.5598 153.079 75.9654 152.707 76.4553C151.517 79.0097 148.04 87.4933 143.771 84.0952C140.691 81.7516 140.364 75.3304 140.037 71.7448C139.666 66.7746 140.317 61.7807 141.951 57.0744C141.811 57.4728 144.61 50.4422 145.847 53.0669C146.181 54.3178 146.227 55.6287 145.98 56.8999C145.734 58.1711 145.201 59.369 144.424 60.4022C140.761 63.1675 146.454 64.3158 148.67 62.6285C152.87 59.4648 155.67 49.247 148.507 48.0284C140.411 46.6691 135.814 54.8715 134.111 61.3864C133.208 65.1279 132.815 68.9752 132.944 72.8228C131.824 74.7914 128.044 81.1189 125.828 82.1969C123.215 83.5561 123.261 81.6579 123.355 80.4393C123.448 79.2206 124.615 68.3701 125.244 61.0583C125.797 58.1556 125.387 55.1511 124.078 52.5045C123.075 50.4656 114.745 45.8958 107.418 54.4731C103.291 58.9981 100.765 64.7643 100.232 70.8777C99.742 71.862 99.2054 72.9166 98.5754 74.0649C95.0755 80.5096 90.6657 83.2281 89.1024 78.7519C87.5299 74.0893 86.9341 69.1505 87.3524 64.2455C92.7893 55.7923 96.7798 46.4851 99.1587 36.7092C102.659 21.1013 102.005 13.3443 100.115 12.0319C98.2254 10.7195 90.199 7.48547 85.3692 26.6789C81.786 40.3357 80.5317 54.5035 81.6593 68.5811C80.9127 70.1746 79.9794 72.0963 78.7894 74.2758C75.2895 80.7205 70.903 83.439 69.3164 78.9628C67.7755 74.2936 67.2115 69.3549 67.6598 64.4565C73.0966 56.0032 77.0871 46.696 79.466 36.9201C83.0826 21.1013 82.3593 13.3443 80.4693 12.0319C78.5794 10.7195 70.553 7.48547 65.7465 26.6789C60.94 45.8723 59.9834 66.8 64.5799 80.8611C64.5799 80.8611 67.0998 88.7822 71.813 88.1963C75.7095 87.7042 80.3527 83.8608 83.0826 76.6896C83.3913 78.0991 83.7729 79.4915 84.2259 80.8611C84.2259 80.8611 86.7458 88.7822 91.459 88.1963C94.6555 87.7979 98.4587 85.1029 101.119 80.1815C102.775 84.4701 106.345 88.0088 110.942 87.212C117.171 86.0872 118.455 82.689 118.455 82.689C118.455 82.689 118.338 88.2666 122.328 88.2666C125.874 88.2666 128.698 86.1809 131.498 80.8611C132.454 79.0566 133.014 78.002 133.318 77.3927C134.134 82.4313 136.211 86.9074 140.317 88.7119C147.317 91.7585 153.43 85.97 157.023 80.2518C157.484 81.6298 158.235 82.8917 159.226 83.9514C160.216 85.011 161.423 85.8435 162.763 86.3918C164.291 86.8741 165.921 86.9259 167.477 86.5415C169.032 86.1572 170.452 85.3516 171.583 84.2123V92.4615C170.304 92.3932 169.036 92.7381 167.966 93.4458C164.394 96.3896 161.624 100.195 159.914 104.507C158.204 108.819 157.611 113.495 158.19 118.1C158.289 119.345 158.693 120.547 159.366 121.598C160.04 122.649 160.962 123.516 162.05 124.121C163.138 124.727 164.359 125.053 165.603 125.069C166.847 125.086 168.076 124.793 169.18 124.216C176.413 121.052 177.509 110.155 178.116 103.5C179.586 87.4933 178.443 70.8308 178.443 54.7777C178.443 51.8249 171.676 53.2076 171.676 55.6214ZM70.5763 29.374C72.1863 23.1636 73.6796 20.6795 75.2429 20.6795C76.8061 20.6795 77.4128 22.3434 76.3161 27.7101C74.2814 38.0033 71.0796 48.0286 66.7731 57.5899C66.7731 57.5899 68.9664 35.6077 70.5763 29.374ZM90.2223 29.374C91.8323 23.1636 93.3256 20.6795 94.7722 20.6795C96.2188 20.6795 96.9654 22.3434 95.8688 27.7101C94.7722 33.0767 91.2023 47.9112 86.3258 57.5899C86.3258 57.5899 88.6591 35.6077 90.2223 29.374ZM120.228 58.5977C120.041 59.9569 119.155 68.6514 117.895 73.3384C116.635 78.0254 115.771 79.6893 111.992 81.3064C108.212 82.9234 106.298 77.9786 106.298 77.9786C103.615 70.4793 107.208 63.9174 110.195 59.4179C113.182 54.9183 116.191 54.5199 117.918 54.7308C118.323 54.8322 118.703 55.0127 119.038 55.2619C119.373 55.5112 119.656 55.8243 119.871 56.1834C120.085 56.5425 120.227 56.9406 120.289 57.3548C120.35 57.7691 120.329 58.1914 120.228 58.5977ZM171.49 100.781C171.63 107.081 170.371 113.334 167.803 119.084C166.17 119.412 165.47 118.803 164.91 116.178C164.525 113.654 164.525 111.086 164.91 108.562C165.673 103.925 167.956 99.6773 171.396 96.4924C171.513 97.9688 171.513 99.3984 171.49 100.781Z" fill="#2D3440"/>
<path d="M215.355 48.9892C212.32 47.6446 209.58 45.7098 207.294 43.2965C205.007 40.8832 203.219 38.039 202.032 34.9281C199.045 25.9758 208.845 19.3671 216.661 19.7655C224.478 20.1639 228.654 28.2491 228.328 35.4905C228.188 38.045 226.578 43.81 223.428 40.8103C221.345 38.4356 220.07 35.4556 219.788 32.3034C219.321 29.4677 212.555 31.155 213.022 34.1313C214.375 42.7086 223.568 52.153 231.454 43.1773C233.068 41.1451 234.203 38.7725 234.773 36.2373C235.344 33.7021 235.337 31.0699 234.751 28.5381C234.165 26.0063 233.016 23.6405 231.391 21.618C229.765 19.5955 227.705 17.9687 225.364 16.8596C220.085 14.7946 214.246 14.6813 208.891 16.5401C203.536 18.3988 199.013 22.1085 196.129 27.007C189.759 38.3731 202.545 49.4814 211.598 53.5357C226.134 61.3396 226.671 86.4621 207.352 86.6262C203.383 86.5347 199.537 85.2262 196.329 82.8762C193.122 80.5262 190.707 77.2471 189.409 73.479C188.079 69.5419 188.756 55.7854 194.075 54.7309C198.299 53.9106 197.155 50.0438 193.026 50.7703C184.369 52.4576 181.173 63.6831 182.013 71.5339C183.366 84.0483 195.032 91.0554 206.815 90.9617C212.028 91.1121 217.129 89.425 221.233 86.1932C225.337 82.9614 228.186 78.3886 229.284 73.2681C230.151 68.2243 229.233 63.0347 226.688 58.5999C224.144 54.1651 220.134 50.7649 215.355 48.9892Z" fill="#2D3440"/>
<path d="M258.707 86.2278C252.057 82.5719 255.86 68.4873 256.863 63.0738C257.517 59.5819 260.48 54.1918 255.72 52.9966C250.144 51.6374 243.517 56.9572 238.734 62.0426C238.73 56.1756 239.159 50.3164 240.017 44.5131C247.395 40.8156 253.303 34.7086 256.77 27.1945C259.803 21.1013 261.297 8.44631 251.03 12.1491C241.697 15.43 238.501 26.2102 235.584 34.8578C234.482 38.2027 233.632 41.6261 233.041 45.099C232.11 45.4914 231.16 45.8356 230.194 46.1301C226.321 47.3488 226.834 49.4345 230.754 48.2159L232.644 47.6065C230.778 60.7537 232.038 74.5336 233.227 87.4464C233.227 88.7119 240.227 87.4464 239.971 85.6184C239.457 79.8534 239.014 74.0883 238.827 68.3701C239.391 68.2047 239.899 67.8888 240.297 67.4562C242.444 64.7491 244.851 62.2607 247.484 60.0272C248.184 59.3945 248.907 58.8086 249.63 58.2461L250.704 57.4493C252.267 56.2073 252.57 56.1838 251.59 57.4493C251.225 59.6841 250.742 61.8979 250.144 64.0815C248.86 71.1121 245.174 84.9154 253.27 89.3447C255.02 90.2352 261.32 87.6104 258.707 86.2278ZM243.564 29.7255C244.287 27.6397 245.244 25.5774 246.13 23.562C247.227 21.031 250.167 12.3834 252.29 16.5315C253.993 19.8358 251.31 25.2494 250.12 28.4131C248.247 33.3595 245.009 37.6678 240.787 40.8338C241.468 37.0736 242.396 33.3627 243.564 29.7255Z" fill="#2D3440"/>
<path d="M283.789 69.7997C283.789 62.0895 282.926 52.1998 273.756 51.3796C263.7 50.4656 259.757 61.0349 259.617 68.9326C259.602 69.2121 259.672 69.4894 259.818 69.7279C259.964 69.9665 260.178 70.1549 260.433 70.2684C260.433 77.6505 262.206 87.2823 270.956 87.1183C280.709 86.9777 283.789 78.4238 283.789 69.7997ZM272.123 82.6422C266.43 80.2987 266.943 70.4324 267.316 65.6751C267.351 65.436 267.316 65.1919 267.217 64.9718C267.118 64.7517 266.958 64.5648 266.756 64.433C267.456 59.746 269.276 52.7154 273.429 56.2073C276.743 59.0664 276.813 65.9329 276.976 69.8934C277.116 72.6588 276.766 84.3764 272.146 82.6422H272.123Z" fill="#2D3440"/>
<path d="M357.287 112.1C354.673 105.351 348.934 102.726 342.61 102.445C341.905 100.732 341.021 99.0977 339.974 97.5704C330.851 84.0014 309.198 85.8528 294.522 92.8834C294.522 90.7508 294.312 88.6182 294.219 86.4855C297.139 86.7224 300.07 86.2 302.73 84.9686C305.391 83.7372 307.691 81.8383 309.408 79.455C313.305 73.854 312.745 63.9174 311.205 57.6368C309.758 51.7311 304.018 52.7857 299.702 54.7543C298.113 55.5097 296.65 56.5056 295.362 57.7071C295.362 56.137 295.619 54.5434 295.735 53.0201C295.992 49.4111 289.109 50.325 288.876 53.5122C287.802 68.0186 288.176 82.4781 287.849 96.9611C283.708 100.378 280.42 104.719 278.244 109.638C276.069 114.557 275.068 119.918 275.319 125.294C275.319 130.614 279.823 134.668 284.652 130.872C291.396 125.669 293.449 115.334 294.382 107.437C294.764 103.912 294.889 100.364 294.755 96.8205C300.017 93.3551 306.162 91.4895 312.454 91.4479C318.745 91.4064 324.915 93.1906 330.221 96.5861C332.499 98.2019 334.324 100.381 335.517 102.914C331.787 103.584 328.162 104.75 324.738 106.382C320.748 108.304 314.821 112.85 315.101 117.936C315.056 119.545 315.562 121.121 316.534 122.401C317.507 123.68 318.887 124.586 320.445 124.966C320.657 125.074 320.885 125.146 321.121 125.177C335.447 127.521 346.11 119.014 344.057 107.038C351.057 110.858 353.647 119.717 351.173 127.333C345.597 144.441 324.131 148.261 311.625 136.824C310.272 135.606 304.182 138.184 305.255 139.168C323.314 155.737 368.3 140.41 357.287 112.1ZM287.429 107.952C287.231 112.09 286.331 116.164 284.769 119.998C284.186 121.287 283.556 122.529 282.879 123.748C282.879 123.748 282.272 123.888 282.156 122.06C282.146 115.495 284.044 109.069 287.616 103.57C287.569 105.023 287.522 106.499 287.429 107.952ZM294.732 66.0969C294.867 65.9815 294.985 65.8473 295.082 65.6985C296.335 63.5766 297.822 61.6034 299.515 59.8163C300.736 58.4219 302.16 57.2209 303.738 56.2541C304.485 56.6291 305.255 58.5977 305.535 61.2458C306.258 67.7608 306.562 84.9154 296.342 83.2984C295.545 83.2627 294.749 83.3985 294.009 83.6968C293.985 77.7442 294.312 71.9323 294.732 66.0969ZM325.251 121.732H325.111C321.191 120.795 321.611 117.045 322.124 114.514C323.268 108.585 330.454 105.398 336.381 105.14C339.391 113.577 337.081 123.677 325.251 121.732Z" fill="#2D3440"/>
</svg>

<svg width="359" height="146" fill="none" xmlns="http://www.w3.org/2000/svg"><path d="M138.33 98.44c-1.72-.2-3.46.1-5.01.86 0 0-7 5.89-41.63-.89-25.45-4.99-38.68-4.47-38.68-4.47s4.27-29.3 3.1-37.5a2.35 2.35 0 0 0-2.45-2.13c-2.54 0-4.08.98-4.08 2.34.22 5.54.02 11.09-.59 16.6a14.05 14.05 0 0 1-14.4 9.18c-11.08-.77-13.4-8.79-14.39-14.25-.98-5.46-1.54-20.71 1.38-26.95 0 0 16.7.59 27.2-8.41s9.85-16.78 4.88-20.1c-4.97-3.34-16.61-2.75-25.55 5.45a45.41 45.41 0 0 0-11.85 16.4S3.12 31.78 6.13 17.99C9.33 3.6 28.9 5.28 28.9 5.28c4.09.8 4.27 1.17 5.63-.18C35.88 3.74 36.86.22 30.44 0 24.03-.2 4.78 2.99 1.1 15.83-2.85 29.49 4.43 39.26 14.2 40.79c0 0-5.34 23.67 1.26 35.38A20.82 20.82 0 0 0 35.53 87.7c3.85 0 10.66-2.15 12.6-5.27 0 0-.91 8.4-1.68 11.44 0 0-16.2-.21-21.26 2.34-8.6 4.57-6.8 15.28-3.5 19.08 2.8 3.23 11.23 4.99 17.32 2.1a23.23 23.23 0 0 0 12.95-18.04c9.85-.5 19.72.57 29.23 3.19 14.4 4.31 34.44 8.34 40.46 8.34 6.02 0 18.67-1.73 19.44-6.77.42-3.33-.82-5.06-2.76-5.67ZM37 20.12s7.65-5.86 11.32-2.2a5.05 5.05 0 0 1 .2 6.6c-1.53 2.02-5.6 8.4-24.87 11.56 0 0 6.07-10.69 13.35-15.96Zm.63 91.18s-10.57 5.8-11.67-2.06a7.41 7.41 0 0 1 3.83-8.46c1.84-.91 4.36-2.06 15.35-1.66a14.86 14.86 0 0 1-7.5 12.18Z" fill="#2D3440"/><path d="M171.68 55.62v16.15a13.21 13.21 0 0 1-2.01 5.93 13.07 13.07 0 0 1-2.75 3.44c-1.24 1.08-2.06-1.33-2.52-2.34-3.25-6.82-1.68-15.96-.42-23.1.58-3.43-6.33-2.54-6.86.5a69.23 69.23 0 0 0-1.29 18.54 4.34 4.34 0 0 0-3.12 1.72c-1.2 2.55-4.67 11.03-8.94 7.64-3.08-2.35-3.4-8.77-3.73-12.36-.37-4.97.28-9.96 1.91-14.67-.14.4 2.66-6.63 3.9-4a8.54 8.54 0 0 1-1.43 7.33c-3.66 2.77 2.03 3.92 4.25 2.23 4.2-3.17 7-13.38-.16-14.6-8.1-1.36-12.7 6.84-14.4 13.36-.9 3.74-1.3 7.59-1.17 11.43-1.12 1.97-4.9 8.3-7.11 9.38-2.61 1.36-2.57-.54-2.47-1.76.09-1.22 1.25-12.07 1.88-19.38.56-2.9.15-5.9-1.16-8.56-1-2.03-9.33-6.6-16.66 1.97a27.95 27.95 0 0 0-7.19 16.4c-.49 1-1.02 2.05-1.65 3.2-3.5 6.44-7.91 9.16-9.48 4.68a35.86 35.86 0 0 1-1.75-14.5 90.43 90.43 0 0 0 11.8-27.54c3.5-15.6 2.85-23.37.96-24.68-1.88-1.31-9.91-4.54-14.74 14.65a125.6 125.6 0 0 0-3.71 41.9 101.8 101.8 0 0 1-2.87 5.7c-3.5 6.44-7.89 9.16-9.47 4.68a35.86 35.86 0 0 1-1.66-14.5 90.43 90.43 0 0 0 11.8-27.54c3.62-15.82 2.9-23.58 1-24.89-1.88-1.31-9.9-4.54-14.71 14.65-4.81 19.2-5.77 40.12-1.17 54.18 0 0 2.52 7.92 7.23 7.34 3.9-.5 8.54-4.34 11.27-11.51.31 1.4.7 2.8 1.15 4.17 0 0 2.52 7.92 7.23 7.34 3.2-.4 7-3.1 9.66-8.02 1.66 4.29 5.22 7.83 9.82 7.03 6.23-1.12 7.52-4.52 7.52-4.52s-.12 5.58 3.87 5.58c3.54 0 6.37-2.09 9.17-7.4l1.82-3.48c.81 5.04 2.9 9.52 7 11.32 7 3.05 13.11-2.74 16.7-8.46a10.11 10.11 0 0 0 5.74 6.14 8.71 8.71 0 0 0 8.82-2.18v8.25a5.98 5.98 0 0 0-3.61.99 27.44 27.44 0 0 0-9.78 24.65 7.6 7.6 0 0 0 3.86 6.02 7.5 7.5 0 0 0 7.13.1c7.23-3.17 8.33-14.06 8.94-20.72 1.47-16 .32-32.67.32-48.72 0-2.96-6.76-1.57-6.76.84ZM70.58 29.37c1.6-6.2 3.1-8.7 4.66-8.7 1.57 0 2.17 1.67 1.08 7.04a137.85 137.85 0 0 1-9.55 29.88s2.2-21.98 3.8-28.22Zm19.64 0c1.61-6.2 3.1-8.7 4.55-8.7 1.45 0 2.2 1.67 1.1 7.04s-4.67 20.2-9.54 29.88c0 0 2.33-21.98 3.9-28.22Zm30 29.23c-.18 1.36-1.06 10.05-2.33 14.74-1.25 4.69-2.12 6.35-5.9 7.97-3.78 1.61-5.7-3.33-5.7-3.33-2.68-7.5.92-14.06 3.9-18.56 3-4.5 6-4.9 7.73-4.69a3.16 3.16 0 0 1 2.37 2.62c.06.42.04.84-.06 1.25Zm51.27 42.18a42.57 42.57 0 0 1-3.69 18.3c-1.63.33-2.33-.28-2.89-2.9-.38-2.53-.38-5.1 0-7.62a21.12 21.12 0 0 1 6.49-12.07c.11 1.48.11 2.9.09 4.3ZM215.35 48.99a25.12 25.12 0 0 1-13.32-14.06c-2.99-8.95 6.81-15.56 14.63-15.16 7.82.4 12 8.48 11.67 15.72-.14 2.55-1.75 8.32-4.9 5.32a14.92 14.92 0 0 1-3.64-8.5c-.47-2.84-7.23-1.16-6.77 1.82 1.35 8.58 10.55 18.02 18.43 9.05a17.24 17.24 0 0 0-.06-21.56 17.16 17.16 0 0 0-6.03-4.76 23.8 23.8 0 0 0-29.23 10.15c-6.37 11.36 6.41 22.47 15.47 26.53 14.53 7.8 15.07 32.92-4.25 33.09a19.4 19.4 0 0 1-17.94-13.15c-1.33-3.94-.65-17.7 4.66-18.75 4.23-.82 3.09-4.69-1.04-3.96-8.66 1.69-11.86 12.91-11.02 20.76 1.36 12.52 13.02 19.53 24.8 19.43a22.26 22.26 0 0 0 14.42-4.77c4.1-3.23 6.96-7.8 8.05-12.92a22 22 0 0 0-2.6-14.67 21.84 21.84 0 0 0-11.33-9.61Z" fill="#2D3440"/><path d="M258.7 86.23c-6.64-3.66-2.84-17.74-1.84-23.16.66-3.49 3.62-8.88-1.14-10.07-5.58-1.36-12.2 3.96-16.99 9.04 0-5.86.43-11.72 1.29-17.53a36.44 36.44 0 0 0 16.75-17.32c3.03-6.09 4.53-18.74-5.74-15.04-9.33 3.28-12.53 14.06-15.45 22.7a70.56 70.56 0 0 0-2.54 10.25c-.93.4-1.88.74-2.85 1.03-3.87 1.22-3.36 3.3.56 2.09l1.9-.61c-1.87 13.14-.61 26.92.58 39.84 0 1.26 7 0 6.74-1.83-.51-5.77-.96-11.53-1.14-17.25a3.23 3.23 0 0 0 1.47-.91c2.14-2.71 4.55-5.2 7.18-7.43.7-.64 1.43-1.22 2.15-1.78l1.07-.8c1.57-1.24 1.87-1.27.89 0a64.43 64.43 0 0 1-1.45 6.63c-1.28 7.03-4.97 20.84 3.13 25.26 1.75.9 8.05-1.73 5.44-3.11Zm-15.14-56.5c.73-2.09 1.68-4.15 2.57-6.17 1.1-2.53 4.04-11.18 6.16-7.03 1.7 3.3-.98 8.72-2.17 11.88a27.85 27.85 0 0 1-9.33 12.42 87.1 87.1 0 0 1 2.77-11.1Z" fill="#2D3440"/><path d="M283.79 69.8c0-7.71-.86-17.6-10.03-18.42-10.06-.91-14 9.65-14.14 17.55a1.38 1.38 0 0 0 .81 1.34c0 7.38 1.78 17.01 10.53 16.85 9.75-.14 12.83-8.7 12.83-17.32Zm-11.67 12.84c-5.69-2.34-5.18-12.2-4.8-16.96a1.27 1.27 0 0 0-.56-1.25c.7-4.68 2.52-11.71 6.67-8.22 3.31 2.86 3.38 9.72 3.55 13.68.14 2.77-.21 14.49-4.83 12.75h-.03ZM357.29 112.1c-2.62-6.75-8.36-9.37-14.68-9.66a26.38 26.38 0 0 0-2.64-4.87c-9.12-13.57-30.77-11.72-45.45-4.69 0-2.13-.2-4.26-.3-6.4a16.99 16.99 0 0 0 15.19-7.03c3.9-5.6 3.33-15.53 1.8-21.81-1.45-5.9-7.2-4.85-11.5-2.89a17.17 17.17 0 0 0-4.35 2.96c0-1.57.26-3.17.38-4.69.25-3.6-6.63-2.7-6.86.5-1.08 14.5-.7 28.96-1.03 43.44a34.56 34.56 0 0 0-12.53 28.33c0 5.32 4.5 9.38 9.33 5.58 6.75-5.2 8.8-15.54 9.73-23.43.38-3.53.5-7.08.38-10.62a32.57 32.57 0 0 1 35.46-.23c2.28 1.61 4.1 3.8 5.3 6.32a42.53 42.53 0 0 0-10.78 3.47c-4 1.92-9.92 6.47-9.64 11.56a7.06 7.06 0 0 0 5.34 7.03c.22.1.44.18.68.2 14.33 2.35 24.99-6.16 22.94-18.13 7 3.82 9.59 12.68 7.11 20.3-5.57 17.1-27.04 20.92-39.55 9.48-1.35-1.21-7.44 1.36-6.37 2.35 18.06 16.57 63.05 1.24 52.04-27.07Zm-69.86-4.15c-.2 4.14-1.1 8.21-2.66 12.05a50.94 50.94 0 0 1-1.9 3.75s-.6.14-.71-1.69c-.01-6.56 1.88-13 5.46-18.49-.05 1.45-.1 2.93-.2 4.38Zm7.3-41.85c.14-.12.25-.25.35-.4a32.81 32.81 0 0 1 4.44-5.88c1.22-1.4 2.64-2.6 4.22-3.57.75.38 1.51 2.35 1.8 5 .72 6.51 1.02 23.67-9.2 22.05-.8-.04-1.6.1-2.33.4-.02-5.96.3-11.77.72-17.6Zm30.52 55.63h-.14c-3.92-.94-3.5-4.69-2.99-7.22 1.15-5.93 8.33-9.11 14.26-9.37 3.01 8.44.7 18.54-11.13 16.6Z" fill="#2D3440"/></svg>
